src/Pure/16/symbolic/actions/format-text-strikethrough-fr-symbolic.svg

<svg width="16" height="16" version="1.1" xmlns="http://www.w3.org/2000/svg">
 <path d="m3 2v2 3h2v-3h3.5c0.831 0 1.5 0.669 1.5 1.5s-0.669 1.5-1.5 1.5h3.1504c0.21778-0.45514 0.34961-0.95957 0.34961-1.5 0-1.939-1.561-3.5-3.5-3.5h-1.5-2-2zm0 8v4h2 1.5 0.5 1.5c1.939 0 3.5-1.561 3.5-3.5 0-0.17146-0.028978-0.33544-0.052734-0.5h-2.0391c0.055658 0.15722 0.091797 0.32324 0.091797 0.5 0 0.831-0.669 1.5-1.5 1.5h-1.5-2v-2h-2z" fill="#363636" stroke-linecap="square" stroke-width="2"/>
 <g fill="#363636">
  <path d="m2 8v1h12v-1z"/>
 </g>
</svg>

<?xml version="1.0" encoding="UTF-8" standalone="no"?>
<svg
   width="16"
   height="16"
   version="1.1"
   id="svg2"
   sodipodi:docname="format-text-strikethrough-fr-symbolic.svg"
   inkscape:version="1.4.2 (ebf0e940d0, 2025-05-08)"
   xmlns:inkscape="http://www.inkscape.org/namespaces/inkscape"
   xmlns:sodipodi="http://sodipodi.sourceforge.net/DTD/sodipodi-0.dtd"
   xmlns="http://www.w3.org/2000/svg"
   xmlns:svg="http://www.w3.org/2000/svg">
  <defs
     id="defs2">
      <style id="current-color-scheme" type="text/css">
          .ColorScheme-Text { color:#363636; }
      </style>
  </defs>
  <sodipodi:namedview
     id="namedview2"
     pagecolor="#ffffff"
     bordercolor="#000000"
     borderopacity="0.25"
     inkscape:showpageshadow="2"
     inkscape:pageopacity="0.0"
     inkscape:pagecheckerboard="0"
     inkscape:deskcolor="#d1d1d1"
     inkscape:zoom="49.6875"
     inkscape:cx="8"
     inkscape:cy="8"
     inkscape:window-width="1920"
     inkscape:window-height="1010"
     inkscape:window-x="0"
     inkscape:window-y="0"
     inkscape:window-maximized="1"
     inkscape:current-layer="svg2" />
  <path
     id="path1"
     style="fill:currentColor"
     class="ColorScheme-Text"
     d="M 3 2 L 3 4 L 3 7 L 5 7 L 5 4 L 8.5 4 C 9.331 4 10 4.669 10 5.5 C 10 6.331 9.331 7 8.5 7 L 11.650391 7 C 11.868171 6.54486 12 6.04043 12 5.5 C 12 3.561 10.439 2 8.5 2 L 7 2 L 5 2 L 3 2 z M 2 8 L 2 9 L 14 9 L 14 8 L 2 8 z M 3 10 L 3 14 L 5 14 L 6.5 14 L 7 14 L 8.5 14 C 10.439 14 12 12.439 12 10.5 C 12 10.32854 11.971022 10.16456 11.947266 10 L 9.9082031 10 C 9.9638611 10.15722 10 10.32324 10 10.5 C 10 11.331 9.331 12 8.5 12 L 7 12 L 5 12 L 5 10 L 3 10 z " />
</svg>
